images/swiper-logo.svg

<svg xmlns="http://www.w3.org/2000/svg" width="128" height="128" viewBox="0 0 128 128"><defs><linearGradient id="a" x1="50%" x2="50%" y1="0%" y2="100%"><stop offset="0%" stop-color="#0080FF"/><stop offset="100%" stop-color="#00B7FF"/></linearGradient><linearGradient id="b" x1="50%" x2="50%" y1="0%" y2="100%"><stop offset="0%" stop-color="#00B7FF"/><stop offset="100%" stop-color="#0080FF"/></linearGradient></defs><g fill="none"><path fill="url(#a)" d="M97.5869496,9.51093626 C115.83804,20.7848256 128,40.9721238 128,64 C128,99.346224 99.346224,128 64,128 C56.2920179,128 48.9022945,126.637372 42.0606106,124.137797 L41.3296807,123.865645 L42.5199148,123.48344 L44.0499006,122.981598 L44.8047554,122.729449 L44.8047554,122.729449 L45.5528525,122.476476 L47.0287766,121.968044 L48.477679,121.456268 L49.8995657,120.941118 L51.2944429,120.422561 L51.9817549,120.161995 L53.3361292,119.638268 C54.7663971,119.077773 56.1505947,118.511327 57.4887554,117.938757 L58.4837445,117.508179 L59.7032082,116.966702 C60.2391997,116.725238 60.7672019,116.482694 61.2872173,116.239057 L62.0612505,115.87278 L63.1998411,115.320271 L63.7590314,115.042615 L63.7590314,115.042615 L64.3114862,114.76402 L65.3961918,114.203997 C74.5017145,109.427674 80.6883363,104.239002 83.9729034,98.5499653 C90.9321253,86.4962393 84.8542511,73.6150855 67.4065187,60.4830885 L65.9866432,59.4185495 L65.1241488,58.7570907 L64.2867532,58.1006716 L63.4743719,57.4492672 L62.6869203,56.8028527 L62.3025167,56.4815088 L62.3025167,56.4815088 L61.9243138,56.161403 L61.1864678,55.5248932 L60.6492814,55.0507377 L60.6492814,55.0507377 L60.1259396,54.5793364 L59.4496246,53.9550673 L58.7977741,53.3356509 L58.1703034,52.7210621 L57.865684,52.4155703 L57.865684,52.4155703 L57.5671278,52.1112761 L56.9881629,51.5062679 C50.0910281,44.1742986 48.550875,37.8976624 51.6821025,32.4742173 C53.275799,29.713854 56.0387768,26.999998 59.9662039,24.3569485 L60.4430842,24.040124 L61.1940488,23.5569049 C61.5336196,23.3425039 61.8809347,23.1285905 62.2359916,22.9151777 L62.7743828,22.5954356 L63.603739,22.1172522 L64.4592124,21.6408141 L65.1179529,21.2846511 L65.1179529,21.2846511 L65.7913778,20.9295026 L66.7121153,20.4575739 C67.4124544,20.1043216 68.1348104,19.7526404 68.8791706,19.4025938 L69.6308651,19.0530944 L70.6559388,18.5888147 L71.1782513,18.3574212 L72.2424237,17.8961475 L72.7842819,17.6662758 L73.887538,17.2080833 L74.4489343,16.9797709 L75.5912592,16.5247346 L76.1721862,16.2980192 L77.353565,15.8462143 L78.5609715,15.3966054 L79.174433,15.1726349 L80.4208685,14.7263826 L81.6933149,14.2824097 L82.9917658,13.8407497 L83.6507409,13.6207974 L84.9881859,13.1826691 L86.3516187,12.7469371 L87.7410327,12.3136347 L89.1564212,11.8827954 L90.5977776,11.4544525 L92.4359804,10.9225852 L94.3147346,10.394736 L96.6227494,9.76671243 L97.5869496,9.51093626 Z"/><path fill="url(#b)" d="M64,0 C71.7830114,0 79.2415381,1.38928435 86.1411179,3.93339103 L86.8782091,4.21038217 L86.4108627,4.35186467 L84.1313124,5.0545346 L83.3848908,5.2905768 L81.9121853,5.76541455 L80.4663248,6.24395126 L79.0473024,6.72622031 L77.6551115,7.21225509 L76.2897456,7.70208898 L75.6171199,7.94844102 L73.9648828,8.56854028 L72.3545311,9.19471909 L71.0963985,9.70008321 L70.4773795,9.95425044 L69.2594321,10.4655761 C56.8123589,15.7699668 48.6548341,21.7176 44.7538993,28.4742173 C37.9453585,40.2669559 44.1208291,52.9796592 61.5702618,66.1081375 L62.9900625,67.1727537 L63.8522936,67.8346365 L64.6892575,68.491774 L65.09829,68.8185721 L65.8975078,69.468645 L66.4804703,69.9531308 L66.4804703,69.9531308 L67.0493707,70.4349994 L67.7860906,71.0734406 L68.1451248,71.3909334 L68.8445933,72.0224812 C69.2263095,72.3720718 69.5965761,72.7195512 69.9554568,73.0649416 L70.4852463,73.5814631 L71.248012,74.3504059 L71.9726186,75.1123909 C78.8402712,82.495364 80.3081527,88.8974997 77.0447002,94.5499653 C74.933031,98.2074836 70.9013706,101.807999 64.958951,105.303275 L64.4134675,105.620736 L63.5293583,106.121564 L62.6189315,106.620891 C62.1058295,106.897871 61.5805462,107.174142 61.0430864,107.449677 L60.227765,107.862426 L59.2252746,108.356245 L58.1964941,108.848418 L57.1414295,109.338914 L56.6040425,109.583523 L55.5095633,110.071443 L54.3888152,110.557607 L53.2418044,111.041982 L52.6584524,111.283488 L51.4720589,111.76512 L50.869019,112.005238 L50.869019,112.005238 L50.259418,112.244884 L49.0205357,112.722748 L47.755418,113.19868 L46.4640712,113.672647 L45.1465013,114.144619 L43.8027143,114.614564 L43.1209914,114.848766 L41.7378904,115.315609 L41.0365138,115.548243 L39.6141124,116.011914 L38.1655184,116.47343 L36.3179518,117.047246 L34.4294807,117.617582 L32.8892605,118.071305 L30.739698,118.689489 C12.3072163,107.455464 0,87.1649844 0,64 C0,28.653776 28.653776,0 64,0 Z"/></g></svg>

<svg xmlns="http://www.w3.org/2000/svg" width="128" height="128"><defs><linearGradient id="a" x1="50%" x2="50%" y1="0%" y2="100%"><stop offset="0%" stop-color="#0080FF"/><stop offset="100%" stop-color="#00B7FF"/></linearGradient><linearGradient id="b" x1="50%" x2="50%" y1="0%" y2="100%"><stop offset="0%" stop-color="#00B7FF"/><stop offset="100%" stop-color="#0080FF"/></linearGradient></defs><g fill="none"><path fill="url(#a)" d="M97.587 9.51C115.838 20.786 128 40.973 128 64c0 35.346-28.654 64-64 64a63.81 63.81 0 0 1-21.94-3.862l-.73-.272 1.19-.383 1.53-.501.755-.253.748-.253 1.476-.508 1.449-.512 1.422-.515 1.394-.518.688-.261 1.354-.524c1.43-.56 2.815-1.127 4.153-1.7l.995-.43 1.22-.541c.535-.242 1.063-.484 1.583-.728l.774-.366 1.139-.553.559-.277.552-.279 1.085-.56c9.106-4.776 15.292-9.965 18.577-15.654 6.96-12.054.881-24.935-16.566-38.067l-1.42-1.064-.863-.662-.837-.656-.813-.652-.787-.646-.384-.321-.379-.32-.738-.637-.537-.474-.523-.472-.676-.624-.652-.62-.628-.614-.304-.305-.299-.305-.579-.605c-6.897-7.332-8.437-13.608-5.306-19.032 1.594-2.76 4.357-5.474 8.284-8.117l.477-.317.751-.483c.34-.214.687-.428 1.042-.642l.538-.32.83-.478.855-.476.659-.356.673-.355.921-.472a87.41 87.41 0 0 1 2.167-1.055l.752-.35 1.025-.464.522-.232 1.064-.46.542-.23 1.104-.459.56-.228 1.143-.455.581-.227 1.182-.452 1.207-.45.613-.223 1.247-.447 1.272-.444 1.299-.441.659-.22 1.337-.438 1.364-.436 1.389-.433 1.415-.431 1.442-.429 1.838-.531 1.879-.528 2.308-.628.964-.256z"/><path fill="url(#b)" d="M64 0c7.783 0 15.242 1.39 22.141 3.933l.737.277-.467.142-2.28.703-.746.236-1.473.474-1.446.479-1.419.482-1.392.486-1.365.49-.673.246-1.652.62-1.61.627-1.259.505-.619.254-1.218.512C56.812 15.77 48.655 21.718 44.754 28.474 37.945 40.267 44.12 52.98 61.57 66.108l1.42 1.065.862.662.837.657.41.327.799.65.582.484.57.482.736.638.36.318.699.631c.381.35.752.698 1.11 1.043l.53.516.763.77.725.761c6.867 7.383 8.335 13.785 5.072 19.438-2.112 3.657-6.144 7.258-12.086 10.753l-.546.318-.884.5-.91.5a83.75 83.75 0 0 1-1.576.829l-.815.412-1.003.494-1.029.492-1.055.49-.537.246-1.094.487-1.121.487-1.147.484-.584.241-1.186.482-.603.24-.61.24-1.238.478-1.266.476-1.29.474-1.318.472-1.344.47-.682.234-1.383.467-.701.232-1.423.464-1.448.461-1.848.574-1.889.57-1.54.454-2.15.618C12.308 107.455 0 87.165 0 64 0 28.654 28.654 0 64 0z"/></g></svg>
